**kern
*staff1
!!pagebreak:original
*I"P1
=1-
*clefG2
*k[]
*met(c|)
*M2/2
4r
4a/
4gg\
4gg#\
=2
4aa\
8ee\L
8ff\J
4gg\
8dd\L
8ee\J
=3
4ff\
4dd#\
[2ee\
=4
4ee\]
4cc#\
[2dd\
=5
4dd\]
4b\
4cc\
4b-\
=6
4cc\
8a/L
8b/J
4cc\
4e/
=7
4a/
=
*-
